tools/download-figma-icons/icons/outlined-medium/multi-lightning.svg

<svg width="24" height="24" viewBox="0 0 24 24" fill="none" xmlns="http://www.w3.org/2000/svg">
<path fill-rule="evenodd" clip-rule="evenodd" d="M17.9999 16.4924V12.7499C17.9999 12.3374 17.6624 12 17.2499 12H13.7475L14.7742 10.5L15.81 9L17.9999 5.81255V9.74999C17.9999 10.1625 18.3367 10.5 18.7499 10.5H22.2441L17.9999 16.4924ZM9.13506 22.4465C9.09006 22.5073 9.06756 22.4998 9.04507 22.4998C9.01507 22.4848 9.00007 22.4698 9.00007 22.4165V14.2499C9.00007 13.8374 8.66257 13.4999 8.25008 13.4999H1.62018C1.59018 13.4999 1.57593 13.4999 1.55268 13.4924L10.365 1.55257C10.4025 1.49257 10.4325 1.50007 10.4543 1.50007C10.4843 1.51507 10.5 1.53007 10.5 1.58257V9.74995C10.5 10.1624 10.8375 10.4999 11.25 10.4999H12.9525L12.225 11.5574C11.9625 11.9324 11.9243 12.4124 12.135 12.8174C12.3525 13.2374 12.78 13.4999 13.2525 13.4999H15.7417L9.13506 22.4465ZM23.864 9.67495C23.6465 9.26171 23.219 8.99996 22.7465 8.99996H19.4998V4.97252C19.4998 4.44003 19.1548 3.97504 18.6441 3.81004C18.1191 3.64504 17.5566 3.83254 17.2341 4.28254L13.9867 8.99996H12V1.58258C12 0.877587 11.5725 0.277596 10.905 0.0750992C10.2375 -0.134898 9.54 0.105099 9.15 0.67509L0.285136 12.6967C-0.0448594 13.1624 -0.0898587 13.7174 0.157638 14.1824C0.420884 14.6849 0.975125 14.9999 1.62012 14.9999H7.50003V22.4165C7.50003 23.1222 7.92752 23.7222 8.59501 23.9247C8.75251 23.9765 8.9175 23.9997 9.075 23.9997C9.57749 23.9997 10.05 23.759 10.35 23.324L16.4999 14.9849V17.5273C16.4999 18.0823 16.8149 18.5391 17.3016 18.6966C17.4149 18.7348 17.5274 18.7498 17.6399 18.7498C18.0149 18.7498 18.3666 18.5623 18.6141 18.2248L23.774 10.9349C24.0373 10.5674 24.0748 10.0874 23.864 9.67495Z" fill="black"/>
</svg>

<svg xmlns="http://www.w3.org/2000/svg" width="24" height="24" fill="none" viewBox="0 0 24 24"><path fill="currentColor" fill-rule="evenodd" d="M18 16.492V12.75a.75.75 0 0 0-.75-.75h-3.502l1.026-1.5L15.81 9 18 5.813V9.75c0 .412.337.75.75.75h3.494zm-8.865 5.954c-.045.061-.067.054-.09.054-.03-.015-.045-.03-.045-.084V14.25a.75.75 0 0 0-.75-.75H1.62c-.03 0-.044 0-.067-.008l8.812-11.94c.037-.06.067-.052.09-.052.03.015.045.03.045.083V9.75c0 .412.338.75.75.75h1.703l-.728 1.057a1.21 1.21 0 0 0-.09 1.26c.217.42.645.683 1.117.683h2.49zm14.729-12.77A1.26 1.26 0 0 0 22.747 9H19.5V4.973c0-.533-.345-.998-.856-1.163a1.26 1.26 0 0 0-1.41.473L13.987 9H12V1.583c0-.705-.428-1.305-1.095-1.508a1.54 1.54 0 0 0-1.755.6L.285 12.697c-.33.465-.375 1.02-.127 1.485.263.503.817.818 1.462.818H7.5v7.416c0 .706.428 1.306 1.095 1.509a1.55 1.55 0 0 0 1.755-.601l6.15-8.34v2.543c0 .555.315 1.012.802 1.17q.169.055.338.053c.375 0 .727-.188.974-.525l5.16-7.29c.263-.368.3-.848.09-1.26" clip-rule="evenodd"/></svg>
